img/payment_4.svg

<svg width="103" height="36" viewBox="0 0 103 36" fill="none" xmlns="http://www.w3.org/2000/svg">
<path d="M32.2633 18.268V19.15H34.5313V23.392H35.5393V12.094H34.5313V15.202H32.6553C32.7673 14.6 32.8233 13.97 32.8233 13.34H28.1333V14.208H31.7733C31.5773 16.784 30.2473 19.024 27.6153 20.62L28.2313 21.39C30.5413 19.99 31.8713 18.142 32.4593 16.07H34.5313V18.268H32.2633ZM36.9813 24.036H38.0033V11.758H36.9813V24.036ZM40.2577 12.906V13.802H43.0157V13.97C43.0157 15.65 41.6997 17.092 39.8937 17.68L40.4257 18.52C41.8677 18.044 43.0297 17.008 43.5617 15.678C44.0937 16.91 45.1857 17.862 46.5997 18.31L47.1177 17.484C45.3397 16.924 44.0797 15.538 44.0797 13.97V13.802H46.8097V12.906H40.2577ZM39.6837 20.564L39.8237 21.46C41.9377 21.46 44.8357 21.46 47.4397 20.97L47.3557 20.186C46.3197 20.34 45.1857 20.424 44.0797 20.48V18.002H43.0157V20.522C41.8117 20.564 40.6637 20.564 39.6837 20.564ZM48.1537 24.036H49.2037V17.778H51.1917V16.882H49.2037V11.758H48.1537V24.036ZM61.006 11.758V24.05H62.084V11.758H61.006ZM52.522 16.98C52.522 19.584 53.824 21.25 55.63 21.25C57.436 21.25 58.738 19.584 58.738 16.98C58.738 14.376 57.436 12.724 55.63 12.724C53.824 12.724 52.522 14.376 52.522 16.98ZM53.558 16.98C53.558 14.978 54.412 13.676 55.63 13.676C56.862 13.676 57.716 14.978 57.716 16.98C57.716 18.996 56.862 20.312 55.63 20.312C54.412 20.312 53.558 18.996 53.558 16.98ZM69.3083 16.63V17.512H71.2263V23.392H72.2203V12.066H71.2263V16.63H69.3083ZM64.2123 20.704L64.8563 21.516C66.0603 20.774 66.9423 19.388 67.3763 17.806C67.8103 19.29 68.6923 20.564 69.8963 21.222L70.4983 20.438C68.8743 19.542 67.8523 17.512 67.8523 15.552V14.936H70.1623V14.054H67.8663V12.22H66.8443V14.054H64.5343V14.936H66.8443V15.552C66.8443 17.582 65.8643 19.724 64.2123 20.704ZM73.6763 24.036H74.7123V11.758H73.6763V24.036Z" fill="#797979"/>
<path d="M6 1H97V-1H6V1ZM102 6V30H104V6H102ZM97 35H6V37H97V35ZM1 30V6H-1V30H1ZM6 35C3.23858 35 1 32.7614 1 30H-1C-1 33.866 2.13401 37 6 37V35ZM102 30C102 32.7614 99.7614 35 97 35V37C100.866 37 104 33.866 104 30H102ZM97 1C99.7614 1 102 3.23858 102 6H104C104 2.13401 100.866 -1 97 -1V1ZM6 -1C2.13401 -1 -1 2.13401 -1 6H1C1 3.23858 3.23858 1 6 1V-1Z" fill="#E2E2E2"/>
</svg>

<?xml version="1.0" encoding="utf-8"?>
<!-- Generator: Adobe Illustrator 26.3.1, SVG Export Plug-In . SVG Version: 6.00 Build 0)  -->
<svg version="1.1" id="레이어_1" xmlns="http://www.w3.org/2000/svg" xmlns:xlink="http://www.w3.org/1999/xlink" x="0px"
	 y="0px" viewBox="0 0 103 36" style="enable-background:new 0 0 103 36;" xml:space="preserve">
<style type="text/css">
	.st0{fill:#797979;}
</style>
<path class="st0" d="M32.26,18.27v0.88h2.27v4.24h1.01v-11.3h-1.01v3.11h-1.88c0.11-0.6,0.17-1.23,0.17-1.86h-4.69v0.87h3.64
	c-0.2,2.58-1.53,4.82-4.16,6.41l0.62,0.77c2.31-1.4,3.64-3.25,4.23-5.32h2.07v2.2H32.26z M36.98,24.04H38V11.76h-1.02V24.04z
	 M40.26,12.91v0.9h2.76v0.17c0,1.68-1.32,3.12-3.12,3.71l0.53,0.84c1.44-0.48,2.6-1.51,3.14-2.84c0.53,1.23,1.62,2.18,3.04,2.63
	l0.52-0.83c-1.78-0.56-3.04-1.95-3.04-3.51V13.8h2.73v-0.9H40.26z M39.68,20.56l0.14,0.9c2.11,0,5.01,0,7.62-0.49l-0.08-0.78
	c-1.04,0.15-2.17,0.24-3.28,0.29V18h-1.06v2.52C41.81,20.56,40.66,20.56,39.68,20.56z M48.15,24.04h1.05v-6.26h1.99v-0.9H49.2v-5.12
	h-1.05V24.04z M61.01,11.76v12.29h1.08V11.76H61.01z M52.52,16.98c0,2.6,1.3,4.27,3.11,4.27s3.11-1.67,3.11-4.27
	s-1.3-4.26-3.11-4.26S52.52,14.38,52.52,16.98z M53.56,16.98c0-2,0.85-3.3,2.07-3.3c1.23,0,2.09,1.3,2.09,3.3
	c0,2.02-0.85,3.33-2.09,3.33C54.41,20.31,53.56,19,53.56,16.98z M69.31,16.63v0.88h1.92v5.88h0.99V12.07h-0.99v4.56H69.31z
	 M64.21,20.7l0.64,0.81c1.2-0.74,2.09-2.13,2.52-3.71c0.43,1.48,1.32,2.76,2.52,3.42l0.6-0.78c-1.62-0.9-2.65-2.93-2.65-4.89v-0.62
	h2.31v-0.88h-2.3v-1.83h-1.02v1.83h-2.31v0.88h2.31v0.62C66.84,17.58,65.86,19.72,64.21,20.7z M73.68,24.04h1.04V11.76h-1.04V24.04z
	"/>
</svg>
